X:15
T:Black Mill
Z: id:dc-reel-368
M:C
L:1/8
K:A Mixolydian
gf|edef g2fe|dBGB dBGB|edef gage|dBgB A2:|!
cd|e2ed eAAB|dBGB dBGB|e2ed eAAB|dBGB A2cd|!
e2ed eAAB|dBGB dBGB|edef gage|dBgB A2|]!

